lib/functional/media/headphones.svg

<svg xmlns="http://www.w3.org/2000/svg" fill="none" stroke="currentColor" aria-hidden="true" viewBox="0 0 32 32"><g id="Icon-Headphones"><g clip-path="url(#clip0_12_3488)"><g id="size=md (32px)"><path id="Vector" stroke-linecap="round" stroke-linejoin="round" stroke-width="2" d="M28.1875 16.9999H24.1875C23.6571 16.9999 23.1484 17.2106 22.7733 17.5857C22.3982 17.9608 22.1875 18.4695 22.1875 18.9999V23.9999C22.1875 24.5304 22.3982 25.0391 22.7733 25.4141C23.1484 25.7892 23.6571 25.9999 24.1875 25.9999H26.1875C26.7179 25.9999 27.2266 25.7892 27.6017 25.4141C27.9768 25.0391 28.1875 24.5304 28.1875 23.9999V16.9999ZM28.1875 16.9999C28.1876 15.4156 27.8739 13.847 27.2646 12.3845C26.6553 10.922 25.7624 9.59472 24.6375 8.4791C23.5126 7.36348 22.1779 6.48165 20.7104 5.88451C19.2429 5.28737 17.6718 4.98673 16.0875 4.99993C14.5043 4.98838 12.9344 5.29025 11.4684 5.88814C10.0024 6.48602 8.66919 7.36811 7.5456 8.48356C6.42201 9.59901 5.53026 10.9258 4.92174 12.3874C4.31322 13.8491 3.99996 15.4167 4 16.9999V23.9999C4 24.5304 4.21071 25.0391 4.58579 25.4141C4.96086 25.7892 5.46957 25.9999 6 25.9999H8C8.53043 25.9999 9.03914 25.7892 9.41421 25.4141C9.78929 25.0391 10 24.5304 10 23.9999V18.9999C10 18.4695 9.78929 17.9608 9.41421 17.5857C9.03914 17.2106 8.53043 16.9999 8 16.9999H4"/></g></g></g><defs><clipPath id="clip0_12_3488"><rect width="32" height="32" fill="white" rx="5"/></clipPath></defs></svg>

<svg xmlns="http://www.w3.org/2000/svg" fill="none" stroke="currentColor" aria-hidden="true" viewBox="0 0 32 32"><g clip-path="url(#a)"><path stroke-linecap="round" stroke-linejoin="round" stroke-width="2" d="M28.188 17h-4a2 2 0 0 0-2 2v5a2 2 0 0 0 2 2h2a2 2 0 0 0 2-2v-7Zm0 0a12 12 0 0 0-12.1-12A12 12 0 0 0 4 17v7a2 2 0 0 0 2 2h2a2 2 0 0 0 2-2v-5a2 2 0 0 0-2-2H4"/></g><defs><clipPath id="a"><rect width="32" height="32" fill="#fff" rx="5"/></clipPath></defs></svg>
